icon/pk/surveillance-cameras-one.svg

<svg viewBox="0 0 48 48" fill="none" xmlns="http://www.w3.org/2000/svg" height="1em" width="1em">
  <path d="M6 26V42" stroke="black" stroke-width="4" stroke-linecap="round" stroke-linejoin="round"/>
  <path d="M6 33H13L17 27" stroke="black" stroke-width="4" stroke-linecap="round" stroke-linejoin="round"/>
  <path d="M7 20L33.4735 37.649C33.795 37.8633 34.2113 37.8732 34.5426 37.6744L44 32" stroke="black" stroke-width="4" stroke-linecap="round" stroke-linejoin="round"/>
  <path d="M7.07803 12.7187C6.53288 12.3553 6.47867 11.5745 6.96837 11.1392L14.4279 4.50854C14.7655 4.20843 15.2624 4.17193 15.6403 4.41949L42.7046 22.1513C43.312 22.5493 43.3061 23.4416 42.6935 23.8314L33.5496 29.6503C33.2155 29.8629 32.7875 29.8583 32.458 29.6387L7.07803 12.7187Z" fill="#2F88FF" stroke="black" stroke-width="4"/>
</svg>

<svg width="48" height="48" fill="none" xmlns="http://www.w3.org/2000/svg"><path d="M6 26v16M6 33h7l4-6M7 20l26.474 17.649a1 1 0 0 0 1.069.025L44 32" stroke="#000" stroke-width="4" stroke-linecap="round" stroke-linejoin="round"/><path d="M7.078 12.719a1 1 0 0 1-.11-1.58l7.46-6.63a1 1 0 0 1 1.212-.09l27.065 17.732a1 1 0 0 1-.011 1.68l-9.144 5.82a1 1 0 0 1-1.092-.012l-25.38-16.92Z" fill="#2F88FF" stroke="#000" stroke-width="4"/></svg>
